X: 14808
T: Gap Tooth
R: jig
M: 6/8
K: Gminor
|:G,A,G, B,G,C|DFD G2A|BAG FDC|DB,A, G,A,B,|
G,A,G, B,G,C|DFD G2A|BAG FDC|DB,A, G,3:|
|:d3 dcB|G3 GBc|d3 dcB|e3 e2A|
BAG FDC|DFD G2A|BAG FDC|DB,A, G,3:|

